docs/public/icons/office.svg

<svg xmlns="http://www.w3.org/2000/svg" width="100" height="100" viewBox="0 0 48 48"><path fill="#e64a19" d="M7 12l22-8 12 3v34l-12 3-22-8 22 3V10l-14 3v20l-8 3z"/></svg>

<svg xmlns="http://www.w3.org/2000/svg" x="0px" y="0px" width="100" height="100" viewBox="0 0 48 48">
<path fill="#e64a19" d="M7 12L29 4 41 7 41 41 29 44 7 36 29 39 29 10 15 13 15 33 7 36z"></path>
</svg>
